img/dish.svg

<svg xmlns="http://www.w3.org/2000/svg">
    <path d="M45.3205 21.5702L44.6357 19.3163C43.7659 16.756 40.9852 15.3857 38.4249 
    16.2556C36.9847 16.7449 35.8536 17.876 35.3643 19.3163L34.6795 21.5702C34.1032 
    23.471 33.9823 25.4807 34.3264 27.4368C34.6403 29.0838 35.6859 30.4987 37.168 
    31.2822L36.4011 48.4267C36.2984 49.3836 36.6088 50.339 37.2544 51.0528C38.6428 
    52.5715 40.9996 52.6771 42.5183 51.2887C42.6004 51.2136 42.6791 51.135 42.7541 
    51.0528C43.3853 50.3592 43.6952 49.4319 43.6075 48.4982L42.8363 31.28C44.3164 
    30.4962 45.3603 29.0822 45.6736 27.4368C46.0177 25.4807 45.8968 23.471 45.3205 
    21.5702ZM43.5723 27.0656C43.3413 28.2488 42.4981 29.2196 41.3589 29.6139C40.9265 
    29.7764 40.648 30.1988 40.6688 30.6603L41.4795 48.6667C41.5168 49.0199 41.4003 
    49.372 41.1595 49.6331C40.5172 50.269 39.4828 50.269 38.8405 49.6331C38.5877 
    49.351 38.4729 48.9712 38.5269 48.5963L39.3312 30.6603C39.352 30.1988 39.0735 
    29.7764 38.6411 29.6139C37.5019 29.2196 36.6587 28.2488 36.4277 27.0656C36.1424 
    25.4416 36.2429 23.7732 36.7211 22.1952L37.4059 19.9403C37.9357 18.5076 39.5267 
    17.7758 40.9595 18.3056C41.7169 18.5858 42.314 19.183 42.5941 19.9403L43.2789 
    22.1952C43.7565 23.7734 43.8571 25.4416 43.5723 27.0656Z"/>
    <path d="M28.8 16C28.2109 16 27.7333 16.4776 27.7333 17.0667V26.2251L24.8459 
    29.1125C24.6323 29.3253 24.5187 29.6188 24.5333 29.92L25.4667 48.5867C25.4889 
    48.9892 25.3428 49.3829 25.0635 49.6736C24.4796 50.2627 23.5287 50.2669 22.9395 
    49.6829C22.9363 49.6799 22.9332 49.6767 22.9301 49.6736C22.6507 49.3829 22.5047 
    48.9892 22.5269 48.5867L23.4667 29.92C23.4816 29.6189 23.3684 29.3256 23.1552 
    29.1125L20.2667 26.2251V17.0667C20.2667 16.4776 19.7891 16 19.2 16C18.6109 
    16 18.1333 16.4776 18.1333 17.0667V26.6667C18.1333 26.9496 18.2459 27.2208 
    18.4459 27.4208L21.3109 30.2869L20.4011 48.4832C20.3043 50.4708 21.8371 
    52.1607 23.8247 52.2575C25.8123 52.3543 27.5021 50.8215 27.5989 48.8339C27.6047 
    48.7171 27.6047 48.6001 27.5989 48.4833L26.6891 30.2871L29.5541 27.4209C29.7541 
    27.2209 29.8667 26.9497 29.8667 26.6668V17.0668C29.8667 16.4776 29.3891 16 28.8 16Z"/>
    <path d="M22.4 16C21.8109 16 21.3333 16.4776 21.3333 17.0667V25.6C21.3333 26.1891 
    21.8109 26.6667 22.4 26.6667C22.9891 26.6667 23.4667 26.1891 23.4667 25.6V17.0667C23.4667 
    16.4776 22.9891 16 22.4 16Z"/>
    <path d="M25.6 16C25.0109 16 24.5333 16.4776 24.5333 17.0667V25.6C24.5333 26.1891 
    25.0109 26.6667 25.6 26.6667C26.1891 26.6667 26.6667 26.1891 26.6667 25.6V17.0667C26.6667 
    16.4776 26.1891 16 25.6 16Z"/>
    <path d="M32 0C14.3269 0 0 14.3269 0 32C0 49.6731 14.3269 64 32 64C49.6731 64 64 49.6731 
    64 32C63.98 14.3352 49.6648 0.02 32 0ZM32 61.8667C15.5051 61.8667 2.13333 48.4949 
    2.13333 32C2.13333 15.5051 15.5051 2.13333 32 2.13333C48.4949 2.13333 61.8667 
    15.5051 61.8667 32C61.8479 48.4871 48.4871 61.8479 32 61.8667Z"/>
    <path d="M35.4625 52.0229C35.4053 51.4367 34.8836 51.0077 34.2972 51.0649C34.2835 
    51.0663 34.2697 51.0679 34.256 51.0697L34.2603 51.0687C32.7585 51.2431 31.2415 
    51.2431 29.7397 51.0687C29.1544 51 28.6244 51.4188 28.5557 52.0041C28.4871 
    52.5895 28.9059 53.1195 29.4912 53.1881C31.1567 53.3827 32.8391 53.3827 
    34.5045 53.1881C35.0908 53.1311 35.5197 52.6093 35.4625 52.0229Z"/>
    <path d="M48.32 18.2549C47.9414 17.8035 47.2686 17.7445 46.8173 18.1231C46.8158 
    18.1243 46.8144 18.1257 46.8128 18.1269C46.3625 18.5066 46.3052 19.1794 46.6848 
    19.6298C53.1161 27.2645 52.6241 38.5537 45.553 45.5999C45.1357 46.0158 45.1345 
    46.6914 45.5504 47.1087C45.9662 47.5261 46.6418 47.5273 47.0592 47.1114C54.9174 
    39.283 55.4654 26.7387 48.32 18.2549Z"/>
    <path d="M24.851 14.0992C24.8505 14.0992 24.85 14.0991 24.8495 14.0991C24.8487 
    14.0991 24.8478 14.0992 24.8469 14.0992H24.851Z"/>
    <path d="M37.0315 11.263C32.8628 10.2639 28.4908 10.5324 24.4757 12.0342C23.9243 
    12.2415 23.6455 12.8567 23.8528 13.408C24.0091 13.8236 24.4064 14.0987 24.8503 
    14.0991C24.9779 14.0984 25.1043 14.0751 25.2235 14.0299C28.8392 12.6778 32.7763 
    12.4363 36.5301 13.3366C37.1028 13.475 37.6792 13.1231 37.8176 12.5504C37.956 
    11.9778 37.6041 11.4014 37.0315 11.263Z"/>
    <path d="M18.3989 45.5466C14.8031 41.9569 12.7877 37.081 12.8 32C12.7895 
    27.9405 14.0753 23.9837 16.4704 20.7061C16.8244 20.2352 16.7296 19.5665 
    16.2587 19.2125C15.7877 18.8585 15.1191 18.9533 14.7651 19.4243C14.7588 
    19.4327 14.7527 19.441 14.7467 19.4496C8.5796 27.928 9.48706 39.6308 
    16.8875 47.057C17.3045 47.4744 17.9811 47.4746 18.3984 47.0576C18.8157 
    46.6405 18.816 45.964 18.3989 45.5466Z"/>
</svg>

<svg xmlns="http://www.w3.org/2000/svg"><path d="m45.32 21.57-.684-2.254a4.896 4.896 0 0 0-9.272 0l-.684 2.254a12.66 12.66 0 0 0-.354 5.867 5.52 5.52 0 0 0 2.842 3.845l-.767 17.145a3.38 3.38 0 0 0 .853 2.626 3.726 3.726 0 0 0 5.5 0c.631-.694.941-1.621.854-2.555l-.772-17.218a5.52 5.52 0 0 0 2.838-3.843 12.66 12.66 0 0 0-.353-5.867m-1.748 5.496a3.38 3.38 0 0 1-2.213 2.548c-.433.162-.711.585-.69 1.046l.81 18.007c.038.353-.079.705-.32.966a1.65 1.65 0 0 1-2.318 0 1.28 1.28 0 0 1-.314-1.037l.804-17.936a1.07 1.07 0 0 0-.69-1.046 3.38 3.38 0 0 1-2.213-2.548 10.5 10.5 0 0 1 .293-4.87l.685-2.256a2.766 2.766 0 0 1 5.188 0l.685 2.255c.477 1.578.578 3.247.293 4.87M28.8 16c-.59 0-1.067.478-1.067 1.067v9.158l-2.887 2.887a1.07 1.07 0 0 0-.313.808l.934 18.667c.022.402-.124.796-.403 1.087a1.5 1.5 0 0 1-2.125.009l-.009-.01a1.45 1.45 0 0 1-.403-1.086l.94-18.667a1.07 1.07 0 0 0-.312-.808l-2.888-2.887v-9.158a1.067 1.067 0 0 0-2.134 0v9.6c0 .283.113.554.313.754l2.865 2.866-.91 18.196a3.603 3.603 0 1 0 7.198 0l-.91-18.196 2.865-2.866c.2-.2.313-.471.313-.754v-9.6c0-.59-.478-1.067-1.067-1.067"/><path d="M22.4 16c-.59 0-1.067.478-1.067 1.067V25.6a1.067 1.067 0 0 0 2.134 0v-8.533c0-.59-.478-1.067-1.067-1.067M25.6 16c-.59 0-1.067.478-1.067 1.067V25.6a1.067 1.067 0 0 0 2.134 0v-8.533c0-.59-.478-1.067-1.067-1.067"/><path d="M32 0C14.327 0 0 14.327 0 32s14.327 32 32 32 32-14.327 32-32C63.98 14.335 49.665.02 32 0m0 61.867C15.505 61.867 2.133 48.495 2.133 32S15.505 2.133 32 2.133 61.867 15.505 61.867 32C61.847 48.487 48.487 61.848 32 61.867"/><path d="M35.463 52.023a1.067 1.067 0 0 0-1.207-.953l.004-.001a19.6 19.6 0 0 1-4.52 0 1.067 1.067 0 1 0-.249 2.12c1.666.194 3.348.194 5.014 0a1.066 1.066 0 0 0 .957-1.166M48.32 18.255a1.067 1.067 0 0 0-1.503-.132l-.004.004a1.067 1.067 0 0 0-.128 1.503c6.431 7.635 5.94 18.924-1.132 25.97a1.067 1.067 0 0 0 1.506 1.511c7.858-7.828 8.406-20.372 1.261-28.856M24.851 14.1h-.004zM37.032 11.263c-4.17-1-8.541-.73-12.556.771a1.067 1.067 0 0 0 .748 1.996 19.38 19.38 0 0 1 11.306-.693 1.067 1.067 0 1 0 .502-2.074M18.399 45.547A19.08 19.08 0 0 1 12.8 32a19.06 19.06 0 0 1 3.67-11.294 1.067 1.067 0 1 0-1.723-1.256c-6.167 8.478-5.26 20.18 2.14 27.607a1.068 1.068 0 1 0 1.512-1.51"/></svg>
